X: 27840
T: Mother On The Doorstep
R: polka
M: 2/4
K: Dmajor
ff/f/ fg/f/|ee df/d/|c>d eA|de fd|
ff/f/ fg/f/|ee d2|g>f eA|Bc dA|
|:df df/d/|eg g/c/e/c/|df f/a/f/a/|1 ge dA:|2 ge dd||
|:df a/d/f/d/|ce/c/ g/c/e/c/|df/d/ a/d/f/a/|g/f/e/g/ f/d/e/f/|
df a/d/f/d/|ce/c/ g/c/e/c/|df/d/ a/d/f/a/|g/f/e/g/ f/d/d:|

